X: 2
M: C|
L: 1/8
K: G
g3f  e2d2 | BcdB G2ef | ggf2 e2d2 | e2a2 a2f2 |
g2f2 e2d2 | BcdB G2Bc | d2cB A2F2 | G2   G2 |]


